X:1
L:1/8
M:6/8
K:G
 D | D2 G GFG | E2 A ABc | dBG B2 A | G3 G2 D | D2 G GFG | E2 A ABc | dBG D2 F | G3 G2 G/A/ || 
 B2 B BAG | c2 A A2 A/B/ | c2 c cBA | d2 B G2 d/d/ | e2 G d2 G | c2 G B2 G | A2 A AGA | B2 B B2 B | 
 ^c2 A ABc | d2 D D2 d | ed=c BcA | G2 G G2 z | eGG dGG | cGG BGG | Ae>d cBA | G2 g g2 ||
